X:1
T:Mercedes Benz
M:4/4
L:1/4
K:E
E/2-E/2| G z B3/2 c/2| G E z E3/4- C/4| E E2 E| C/2- B,3/2 z| E| G B2c/2-B/2|\
 B- G/2E/2 z z/2 E/2| G/2- B G/2- B c/2 B/2-| B z2| B| e2 c3/2 B/2|\
 G E z C| E E E E/2- C/2-| B, z2|E/2-E/2| G z B3/2 c/2| G E z E| G G2 F|\
 E z2||
